X:1
T:Title
%%score { ( 1 2 5 ) | ( 3 4 6 ) }
L:1/8
Q:1/4=100
M:2/4
K:Bb
V:1 treble nm="Grand Piano"
V:2 treble 
V:5 treble 
V:3 bass 
V:4 bass 
V:6 bass 
V:1
 z B, GB, | z G FB, | z B, GB, | z G FB, | G2 G2 | B-[GB-] [FB-][DB] | G2 G2 | B-[GB-] [FB-][DB] | %8
 G2 [FB]2 | [Ae]2 [Af]2 | e2 .[_Ad]2 | B-[EB] z E | G2 G2 | B4 | G2 F=E | B4 | G2 [FB]2 | e2 z2 | %18
 z2 G2 | E4 | [DB]2 [DF]2 | [B,EG]4 | z2 [DF]2 | G4 | F2 CD | E2 G2 | %26
 F2 CD[Q:1/4=98][Q:1/4=97][Q:1/4=95][Q:1/4=94][Q:1/4=92][Q:1/4=91][Q:1/4=89][Q:1/4=88][Q:1/4=86][Q:1/4=84][Q:1/4=83][Q:1/4=81][Q:1/4=80][Q:1/4=78][Q:1/4=77] | %27
 E4 |] %28
V:2
 G,4 | _A,4 | G,4 | _A,4 | x4 | .D2 z2 | x4 | .D2 z2 | x4 | x4 | x4 | .[B,G]2 _A2 | x4 | DG FD | %14
 x4 | DG FD | x4 | A^F [A,E][A,E=F] | .[B,EG]2 .C>F | x4 | x4 | x4 | [DB]2 z B, | x4 | x4 | x4 | %26
 x4 | x4 |] %28
V:3
 z B,, B,,,B,, | z B,, B,,,B,, | z B,, B,,,B,, | z B,, B,,,B,, | [E,B,E]2 [E,B,E]2 | _A,3 B, | %6
 [E,B,E]2 [E,B,E]2 | _A,3 B, | [E,B,E]2 [D,B,]2 | [C,C]2 [F,C]2 | [B,_A]2 z[K:treble] c | %11
 z G, [F,C]B, | [E,B,E]2 [E,B,E]2 | _A,3 B, | [E,B,E]2 _A,G, | B,,-[B,,-B,] [B,,-_A,][B,,B,] | %16
 [E,B,E]2 [D,B,]2 | ^F,A, =B,,B,, | z .B,3 | [E,G,]4 | z .B,3 | E,4 | z .B,3 | [E,B,E]4 | %24
 [F,A,C]2 [B,,_A,][B,,A,C] | [E,G,B,]2 [E,B,E]2 | [F,A,C]2 [B,,_A,][B,,A,B,] | [E,G,B,]4 |] %28
V:4
 E,,4 | D,,4 | E,,4 | D,,4 | x4 | B,,4 | x4 | B,,4 | x4 | x4 | z2 [B,,B,]2[K:treble] | B,,2 B,,2 | %12
 x4 | B,,4 | z2 [D,B,]2 | .F,2 z2 | x4 | C,2 z2 | z2 z _A, | x4 | ._A,2 z B, | x4 | ._A,2 B,,2 | %23
 x4 | x4 | x4 | x4 | x4 |] %28
V:5
 x4 | x4 | x4 | x4 | x4 | x4 | x4 | x4 | x4 | x4 | x4 | x4 | x4 | x4 | x4 | x4 | x4 | x4 | z2 z D | %19
 x4 | x4 | x4 | x4 | x4 | x4 | x4 | x4 | x4 |] %28
V:6
 x4 | x4 | x4 | x4 | x4 | x4 | x4 | x4 | x4 | x4 | x3[K:treble] x | x4 | x4 | x4 | x4 | x4 | x4 | %17
 x4 | B,,2 B,,2 | x4 | B,,2 B,,2 | x4 | B,,2 z2 | x4 | x4 | x4 | x4 | x4 |] %28

